public/assets/icons/book-open-solid 1.svg

<svg width="150" height="150" viewBox="0 0 150 150" fill="none" xmlns="http://www.w3.org/2000/svg">
<g clip-path="url(#clip0)">
<path d="M163.796 9.64005C147.241 10.5755 114.339 13.9803 94.0265 26.3605C92.6248 27.2147 91.8303 28.7336 91.8303 30.3218V139.767C91.8303 143.241 95.6456 145.437 98.8628 143.825C119.761 133.351 149.984 130.494 164.928 129.712C170.031 129.444 173.997 125.372 173.997 120.49V18.874C174 13.5472 169.36 9.32724 163.796 9.64005ZM79.9705 26.3605C59.6615 13.9803 26.7585 10.5785 10.2044 9.64005C4.64 9.32724 0 13.5472 0 18.874V120.493C0 125.378 3.96635 129.45 9.06854 129.715C24.0186 130.497 54.2572 133.357 75.1553 143.837C78.3634 145.446 82.1667 143.253 82.1667 139.788V30.2676C82.1667 28.6765 81.3752 27.2177 79.9705 26.3605Z" fill="#D1E2E2"/>
</g>
<defs>
<clipPath id="clip0">
<rect width="150" height="150" fill="white"/>
</clipPath>
</defs>
</svg>

<svg width="150" height="150" fill="none" xmlns="http://www.w3.org/2000/svg"><g clip-path="url(#a)"><path d="M163.796 9.64c-16.555.935-49.457 4.34-69.77 16.72-1.401.855-2.196 2.374-2.196 3.962v109.445c0 3.474 3.816 5.67 7.033 4.058 20.898-10.474 51.121-13.331 66.065-14.113 5.103-.268 9.069-4.34 9.069-9.222V18.874c.003-5.327-4.637-9.547-10.201-9.234zM79.971 26.36C59.66 13.98 26.758 10.58 10.204 9.64 4.64 9.327 0 13.547 0 18.874v101.619c0 4.885 3.966 8.957 9.069 9.222 14.95.782 45.188 3.642 66.086 14.122 3.208 1.609 7.012-.584 7.012-4.049V30.268c0-1.591-.792-3.05-2.197-3.908z" fill="#D1E2E2"/></g><defs><clipPath id="a"><path fill="#fff" d="M0 0h150v150H0z"/></clipPath></defs></svg>
